src/actions/22/media-mout.svg

<svg xmlns="http://www.w3.org/2000/svg" viewBox="0 0 22 22">
  <defs id="defs3051">
    <style type="text/css" id="current-color-scheme">
      .ColorScheme-Text {
        color:#363636;
      }
      </style>
  </defs>
 <path 
    style="fill:currentColor;fill-opacity:1;stroke:none" 
    d="M 4 5 L 11 13 L 18 5 L 4 5 z M 4 14.900391 L 4 17 L 18 17 L 18 14.900391 L 4 14.900391 z "
    class="ColorScheme-Text"
    />  
</svg>

<?xml version="1.0" encoding="UTF-8"?>
<svg viewBox="0 0 22 22" xmlns="http://www.w3.org/2000/svg">
 <defs id="defs3051">
  <style id="current-color-scheme" type="text/css">.ColorScheme-Text {
        color:#363636;
      }</style>
 </defs>
 <path class="ColorScheme-Text" d="m4 5 7 8 7-8h-14zm0 9.9004v2.0996h14v-2.0996h-14z" fill="currentColor"/>
</svg>
